assets/features/channel/east-asia/GME.svg

<svg width="80" height="80" viewBox="0 0 80 80" fill="none" xmlns="http://www.w3.org/2000/svg">
<rect width="80" height="80" rx="8" fill="#E50112"/>
<path d="M38.5707 10.4199C36.6117 11.7592 34.7527 13.2185 33.1934 15.0176C28.4358 20.5548 25.3573 26.8716 24.3778 34.148C23.918 37.5263 24.1579 40.8446 25.4373 44.103C25.0575 43.6632 24.6577 43.2234 24.2979 42.7637C23.918 42.2839 23.5582 41.7842 23.2384 41.2844C22.8986 40.7847 22.5987 40.2449 22.2989 39.7052C21.1594 37.5663 20.4598 35.3074 20.1399 32.9086C20.1399 32.7687 20.1799 32.5888 20 32.4888V28.2909C20.1199 26.5918 20.4798 24.9526 21.0795 23.3734C22.7786 18.8756 25.6972 15.4174 29.8151 12.9586C31.3743 12.0191 33.0535 11.3794 34.7926 10.8597C35.8121 10.5598 36.8716 10.5198 37.9111 10.3999H38.5907L38.5707 10.4199Z" fill="white"/>
<path d="M37.8911 50.4001C37.1514 50.0803 36.3119 50.1403 35.5522 49.8804C35.3523 49.8204 35.1125 49.8204 34.9725 49.6805C40.6697 48.721 45.4673 45.9424 49.8251 42.2842C54.163 38.646 57.7212 34.3882 59.9801 29.0908C60.18 29.2308 60.12 29.4107 60.12 29.5706C60.5598 39.6855 53.2035 48.601 43.2084 50.1602C42.8086 50.2202 42.3489 50.1602 41.989 50.4001H37.9311H37.8911Z" fill="white"/>
<path d="M56.202 18.516C52.4639 18.4161 49.3854 19.9153 46.4668 21.8144C41.8891 24.7929 38.191 28.571 36.072 33.7084C35.0925 36.0672 34.5328 38.506 34.4328 41.1047C35.5123 37.0068 37.7112 33.6085 40.7497 30.8099C43.7482 28.0513 47.1865 26.0123 51.2045 25.1327C51.6443 25.0328 52.104 25.0328 52.5638 25.0728C54.0631 25.1727 54.9426 26.1322 55.0226 27.6315C55.0826 28.9708 54.7427 30.2502 54.143 31.4096C50.9046 37.7264 46.227 42.6239 39.7302 45.6224C38.5108 46.1822 37.2115 46.482 35.8521 46.482C32.7937 46.502 30.7547 44.8428 30.195 41.8443C29.6952 39.1657 30.135 36.587 30.8946 34.0283C33.7732 24.3531 39.7702 17.2967 48.8856 12.8989C49.2655 12.719 49.5653 12.719 49.9451 12.9388C52.3839 14.3381 54.4629 16.1572 56.222 18.516H56.202Z" fill="white"/>
<path d="M66.2716 55.341C66.0349 56.2312 65.911 57.1552 65.742 58.068C65.618 58.6877 65.6293 58.699 64.9982 58.699C62.8572 58.699 60.7162 58.699 58.5865 58.699C58.3048 58.699 58.2146 58.7892 58.1695 59.0483C58.0907 59.5554 58.0118 60.0512 57.8991 60.547C57.8315 60.84 57.9216 60.8851 58.1921 60.8851C60.3894 60.8851 62.5981 60.8851 64.7954 60.8738C65.156 60.8738 65.2461 60.9414 65.1673 61.3133C64.9644 62.2148 64.8179 63.1388 64.6602 64.0515C64.6151 64.3445 64.5137 64.4459 64.2094 64.4459C62.0121 64.4347 59.8035 64.4459 57.6061 64.4347C57.3244 64.4347 57.1779 64.4797 57.1441 64.8065C57.0878 65.3699 56.9864 65.9446 56.8624 66.4968C56.7948 66.7898 56.8962 66.8236 57.1554 66.8236C59.3527 66.8236 61.5614 66.8236 63.7587 66.8236H64.1982C64.0066 67.9392 63.815 69.0209 63.6347 70.0914C63.6009 70.283 63.5446 70.3619 63.3305 70.3619C59.3865 70.3619 55.4313 70.3619 51.4874 70.3619C51.1718 70.3619 51.2169 70.2266 51.2507 70.0125C52.1071 65.1784 52.9635 60.3555 53.8087 55.5213C53.865 55.2171 53.9777 55.1607 54.2481 55.1607C58.1019 55.1607 61.967 55.1607 65.8208 55.1607C65.9673 55.1607 66.1251 55.1382 66.2716 55.1382V55.3636V55.341Z" fill="white"/>
<path d="M36.8384 60.8288C36.737 61.4485 36.6355 62.0683 36.5341 62.6993C36.1285 65.1446 35.7228 67.5898 35.3397 70.0351C35.2946 70.2943 35.1932 70.3281 34.9678 70.3281C33.7621 70.3281 32.5451 70.3168 31.3394 70.3281C31.0464 70.3281 30.9788 70.2605 31.0351 69.9675C31.5084 67.3307 31.9704 64.6826 32.4437 62.0457C32.8381 59.8484 33.2325 57.6398 33.6043 55.4424C33.6494 55.1945 33.7283 55.1382 33.9649 55.1382C35.7566 55.1382 37.5596 55.1495 39.3512 55.1382C39.633 55.1382 39.6893 55.2509 39.7118 55.4875C39.8471 56.8172 39.9823 58.1469 40.1175 59.4765C40.2865 61.1443 40.4668 62.812 40.6471 64.5023C40.8049 64.4121 40.8161 64.2656 40.8725 64.1417C42.2022 61.257 43.5318 58.3722 44.8503 55.4875C44.9629 55.2283 45.0982 55.1382 45.3911 55.1382C47.1378 55.1495 48.8844 55.1495 50.631 55.1382C50.9578 55.1382 51.0366 55.2058 50.9803 55.5326C50.4507 58.4849 49.9323 61.4373 49.4027 64.3896C49.0872 66.2038 48.7491 68.018 48.4562 69.8323C48.3885 70.2154 48.2759 70.3393 47.8702 70.3281C46.6532 70.2943 45.4249 70.3055 44.208 70.3281C43.9488 70.3281 43.8699 70.3055 43.9262 70.0013C44.5685 67.0264 45.1996 64.0403 45.8306 61.0541C45.8306 61.009 45.8419 60.9527 45.7968 60.8851C45.7405 61.009 45.6729 61.1217 45.6165 61.2457C44.2643 64.1642 42.9008 67.0715 41.5599 69.99C41.4359 70.2492 41.3007 70.3393 41.019 70.3281C40.095 70.3055 39.1597 70.3168 38.2244 70.3281C38.0216 70.3281 37.9089 70.3055 37.8863 70.0576C37.5596 66.9813 37.2215 63.9163 36.8835 60.84H36.8271L36.8384 60.8288Z" fill="white"/>
<path d="M22.3922 54.7998C22.9105 54.7998 23.4176 54.7998 23.9359 54.7998C25.6262 54.9125 27.1249 55.4534 28.2405 56.7831C29.0518 57.7521 29.3448 58.9128 29.3673 60.1523C29.3673 60.3439 29.2997 60.389 29.1194 60.389C27.7109 60.389 26.291 60.389 24.8825 60.389C24.7473 60.389 24.6684 60.389 24.612 60.2087C24.1951 58.7212 23.1021 58.1578 21.547 58.5973C20.623 58.8564 20.0258 59.4875 19.5863 60.2988C19.0229 61.358 18.7975 62.5187 18.651 63.6906C18.5947 64.1301 18.5834 64.5696 18.651 65.0203C18.8201 66.1246 19.4285 66.7782 20.5329 66.981C21.9189 67.2402 23.5077 66.4852 24.0148 65.2907H21.8738C22.0541 64.2428 22.2344 63.2399 22.3922 62.237C22.4372 61.9665 22.5837 61.9891 22.764 61.9891C24.4655 61.9891 26.1784 61.9891 27.8799 61.9891C28.2518 61.9891 28.6236 62.0003 28.9842 61.9891C29.2096 61.9778 29.2434 62.0454 29.2096 62.2595C28.8039 64.4794 28.4095 66.7106 28.0151 68.9417C27.9475 69.3248 27.8686 69.7192 27.8123 70.1024C27.7785 70.2939 27.7109 70.3841 27.4968 70.3841C26.5389 70.3728 25.5924 70.3841 24.6346 70.3841C24.4317 70.3841 24.3641 70.339 24.4092 70.1249C24.4881 69.753 24.5444 69.3812 24.612 68.9981C24.4543 69.0206 24.3867 69.1333 24.2853 69.2122C21.9978 70.97 19.4736 71.2179 16.8593 70.2038C14.831 69.4037 13.7605 67.7135 13.6253 65.5837C13.3999 61.8651 14.6733 58.7438 17.6819 56.445C19.0567 55.397 20.6568 54.9238 22.3696 54.8223L22.3922 54.7998Z" fill="white"/>
</svg>

<svg xmlns="http://www.w3.org/2000/svg" width="80" height="80" fill="none" viewBox="0 0 80 80"><rect width="80" height="80" fill="#e50112" rx="8"/><path fill="#fff" d="M38.57 10.42c-1.958 1.34-3.817 2.799-5.377 4.598-4.757 5.537-7.836 11.854-8.815 19.13-.46 3.378-.22 6.697 1.06 9.955-.38-.44-.78-.88-1.14-1.34-.38-.48-.74-.979-1.06-1.479-.34-.5-.64-1.04-.94-1.579-1.139-2.139-1.838-4.398-2.158-6.796 0-.14.04-.32-.14-.42V28.29q.18-2.549 1.08-4.918c1.699-4.497 4.617-7.956 8.735-10.414 1.56-.94 3.238-1.58 4.978-2.1 1.02-.3 2.079-.34 3.118-.46h.68zm-.679 39.98c-.74-.32-1.58-.26-2.339-.52-.2-.06-.44-.06-.58-.2 5.698-.959 10.495-3.738 14.853-7.396 4.338-3.638 7.896-7.896 10.155-13.193.2.14.14.32.14.48.44 10.114-6.916 19.03-16.912 20.59-.4.06-.86 0-1.219.24z"/><path fill="#fff" d="M56.202 18.516c-3.738-.1-6.817 1.4-9.735 3.298-4.578 2.979-8.276 6.757-10.395 11.894a21.2 21.2 0 0 0-1.64 7.397c1.08-4.098 3.28-7.496 6.318-10.295 2.998-2.759 6.437-4.798 10.455-5.677.44-.1.899-.1 1.359-.06 1.5.1 2.379 1.06 2.459 2.558.06 1.34-.28 2.62-.88 3.779-3.238 6.316-7.916 11.214-14.413 14.212-1.22.56-2.518.86-3.878.86-3.058.02-5.097-1.64-5.657-4.638-.5-2.678-.06-5.257.7-7.816 2.878-9.675 8.875-16.731 17.99-21.13.38-.179.68-.179 1.06.04a20.3 20.3 0 0 1 6.277 5.578zm10.07 36.825c-.237.89-.361 1.814-.53 2.727-.124.62-.113.631-.744.631h-6.412c-.281 0-.371.09-.416.35a22 22 0 0 1-.27 1.498c-.069.293.022.338.292.338 2.197 0 4.406 0 6.603-.011.361 0 .451.067.372.44-.203.9-.35 1.825-.507 2.738-.045.292-.146.394-.45.394-2.198-.011-4.406 0-6.604-.011-.282 0-.428.045-.462.371a14 14 0 0 1-.282 1.69c-.067.294.034.328.293.328H64.2c-.192 1.115-.384 2.197-.564 3.267-.034.192-.09.27-.304.27H51.487c-.315 0-.27-.134-.236-.349.856-4.834 1.713-9.657 2.558-14.49.056-.305.169-.361.44-.361H65.82c.146 0 .304-.023.45-.023v.226zm-29.434 5.488c-.101.62-.203 1.24-.304 1.87-.405 2.446-.811 4.89-1.194 7.336-.045.26-.147.293-.372.293-1.206 0-2.423-.011-3.629 0-.293 0-.36-.068-.304-.36.473-2.637.935-5.285 1.409-7.922a692 692 0 0 0 1.16-6.604c.045-.248.124-.304.36-.304 1.793 0 3.596.012 5.387 0 .282 0 .338.113.36.35l.407 3.989c.168 1.667.349 3.335.53 5.025.157-.09.168-.236.224-.36 1.33-2.885 2.66-5.77 3.978-8.654.113-.26.248-.35.541-.35q2.62.018 5.24 0c.327 0 .406.068.35.395-.53 2.952-1.049 5.904-1.578 8.857-.316 1.814-.654 3.628-.947 5.442-.068.383-.18.507-.586.496a79 79 0 0 0-3.662 0c-.26 0-.338-.023-.282-.327a2081 2081 0 0 0 1.905-8.947c0-.045.01-.101-.034-.169-.056.124-.124.237-.18.36-1.353 2.92-2.716 5.827-4.057 8.745-.124.26-.26.35-.541.338-.924-.023-1.86-.011-2.795 0-.202 0-.315-.023-.338-.27-.326-3.077-.665-6.142-1.003-9.218h-.056zM22.392 54.8h1.544c1.69.113 3.189.653 4.305 1.983.81.97 1.104 2.13 1.126 3.37 0 .19-.067.236-.248.236h-4.236c-.136 0-.215 0-.271-.18-.417-1.488-1.51-2.051-3.065-1.612-.924.26-1.521.89-1.96 1.702-.564 1.059-.79 2.22-.936 3.392a4.8 4.8 0 0 0 0 1.33c.17 1.104.777 1.757 1.882 1.96 1.386.26 2.975-.496 3.482-1.69h-2.141c.18-1.048.36-2.051.518-3.054.045-.27.192-.248.372-.248h5.116c.372 0 .744.011 1.104 0 .226-.011.26.056.226.27-.406 2.22-.8 4.452-1.195 6.683-.067.383-.146.777-.203 1.16-.034.192-.101.282-.315.282-.958-.011-1.905 0-2.862 0-.203 0-.27-.045-.226-.26.08-.371.135-.743.203-1.126-.158.023-.225.135-.327.214-2.287 1.758-4.811 2.006-7.426.992-2.028-.8-3.099-2.49-3.234-4.62-.225-3.719 1.048-6.84 4.057-9.139 1.375-1.048 2.975-1.521 4.688-1.623z"/></svg>
